X:28
T:The Drop Dial
R:barn dance
C:Jim McGraw
O:Co. Fermanagh, Ireland
S:http://www.cranfordpub.com/recordings/mcgraw.htm
D:Melodious Accord, Jim McGraw
Z:psc
H:A very majestic and much loved wall clock, mass produced in England and America during the mid nineteenth century. It's pendulum, like a metronome, recording and timing every second, every minute, every day of our lives.
L:1/8
Q:333
M:C|
K:F
AB|cF A/B/c fc A/B/c|BAGB AF F2|C2 C/C/C GCEG|BAGF EC C2|
AF A/B/c dBdf|egcf af f2|AB=Bc edcA|BGEG F2:|
|z2|:f2 Af fdcA|BAGB AF F2|BD ~D2 BAGF|(3EFG (3FED CFAc|
f2 ff fdcA|BAGB AF A/B/c|dB ~B2 dBdf|[1eceg f2 ag:|[2eceg f2|]
